svg/file-icons/Assembly-SPARC.svg

<svg version="1.1" xmlns="http://www.w3.org/2000/svg" width="512px" height="512px"><path d="M0.000061,170.6733398l72.8811035-3.9035645v34.1003418L0.000061,196.2978516V170.6733398z M0,294.4752197l72.8811035,4.5722656v-34.1003418L0,268.850708V294.4752197z M0,392.6525879l72.8810425,4.5722656l0.000061-34.1003418L0,367.0280762V392.6525879z M0.0001221,98.1204834l72.8811035,4.5722656V68.5924072L0.0001831,72.4959717L0.0001221,98.1204834z M81.5735474,116.6205444h43.9456177l0.000061-61.9558716l-43.9456177-0.000061L81.5735474,116.6205444z M330.9854736,199.7200928l0.000061-158.477478c0-10.8082275-8.7617798-19.5700073-19.5699463-19.5700073l-158.8244019-0.0001221c-10.8082275,0-19.5700073,8.7617798-19.5700073,19.5700073l-0.0001831,386.1699219c0,10.8081665,8.7617798,19.5699463,19.5699463,19.5700073h49.689209L330.9854736,199.7200928z M81.5734253,214.7979126h43.9456177l0.000061-61.9558716l-43.9456177-0.000061L81.5734253,214.7979126z M81.5733032,312.9752808h43.9456177l0.000061-61.9558716l-43.9456177-0.000061L81.5733032,312.9752808z M81.5733032,411.1526489l43.9456177,0.000061l0.000061-61.9559326l-43.9456177-0.000061L81.5733032,411.1526489z M339.723114,54.66465l39.3923035,0.0000038l-0.0001221,61.9559288l-39.3923035-0.0000305L339.723114,54.66465z M387.1390686,68.592659l72.881073,3.9036407l-0.0000305,25.6244888l-72.881073,4.5721741L387.1390686,68.592659z M393.3478394,490.3275146h25.9841919l-13.3353271-81.8369751H512L385.3317871,138.307312L225.2179565,446.9824219h59.0289307l101.0848999-193.7749634l52.7624512,111.1412964h-103.420105L393.3478394,490.3275146z"/></svg>

<svg xmlns="http://www.w3.org/2000/svg" width="512" height="512"><path d="m0 170.673 72.881-3.903v34.1l-72.88-4.572v-25.625zm0 123.802 72.881 4.572v-34.1L0 268.851v25.624zm0 98.178 72.881 4.572v-34.1L0 367.028v25.625zM0 98.12l72.881 4.573v-34.1L.001 72.495V98.12zm81.574 18.5h43.945V54.666H81.574v61.956zm249.411 83.1V41.243c0-10.809-8.761-19.57-19.57-19.57H152.592c-10.808 0-19.57 8.761-19.57 19.57v386.17c0 10.808 8.762 19.57 19.57 19.57h49.69L330.984 199.72zM81.573 214.798h43.946v-61.956H81.573v61.956zm0 98.177h43.946V251.02H81.573v61.956zm0 98.178h43.946v-61.956H81.573v61.956zm258.15-356.488h39.392v61.956h-39.392V54.665zm47.416 13.928 72.881 3.903v25.625l-72.881 4.572v-34.1zm6.209 421.735h25.984l-13.335-81.837H512L385.332 138.307 225.218 446.982h59.029l101.085-193.775 52.762 111.142h-103.42l58.674 125.979z"/></svg>
